src/assets/filled/MessageQuestion.svg

<svg width="24" height="24" viewBox="0 0 24 24"  xmlns="http://www.w3.org/2000/svg">
<path d="M17 2.42969H7C4 2.42969 2 4.42969 2 7.42969V13.4297C2 16.4297 4 18.4297 7 18.4297V20.5597C7 21.3597 7.89 21.8397 8.55 21.3897L13 18.4297H17C20 18.4297 22 16.4297 22 13.4297V7.42969C22 4.42969 20 2.42969 17 2.42969ZM12 14.5997C11.58 14.5997 11.25 14.2597 11.25 13.8497C11.25 13.4397 11.58 13.0997 12 13.0997C12.42 13.0997 12.75 13.4397 12.75 13.8497C12.75 14.2597 12.42 14.5997 12 14.5997ZM13.26 10.4497C12.87 10.7097 12.75 10.8797 12.75 11.1597V11.3697C12.75 11.7797 12.41 12.1197 12 12.1197C11.59 12.1197 11.25 11.7797 11.25 11.3697V11.1597C11.25 9.99969 12.1 9.42969 12.42 9.20969C12.79 8.95969 12.91 8.78969 12.91 8.52969C12.91 8.02969 12.5 7.61969 12 7.61969C11.5 7.61969 11.09 8.02969 11.09 8.52969C11.09 8.93969 10.75 9.27969 10.34 9.27969C9.93 9.27969 9.59 8.93969 9.59 8.52969C9.59 7.19969 10.67 6.11969 12 6.11969C13.33 6.11969 14.41 7.19969 14.41 8.52969C14.41 9.66969 13.57 10.2397 13.26 10.4497Z" />
</svg>

<?xml version="1.0" encoding="UTF-8"?>
<svg width="24" height="24" viewBox="0 0 24 24" xmlns="http://www.w3.org/2000/svg">
 <path d="m17 2.4297h-10c-3 0-5 2-5 5v6c0 3 2 5 5 5v2.13c0 0.8 0.89 1.28 1.55 0.83l4.45-2.96h4c3 0 5-2 5-5v-6c0-3-2-5-5-5zm-5 12.17c-0.42 0-0.75-0.34-0.75-0.75s0.33-0.75 0.75-0.75 0.75 0.34 0.75 0.75-0.33 0.75-0.75 0.75zm1.26-4.15c-0.39 0.26-0.51 0.43-0.51 0.71v0.21c0 0.41-0.34 0.75-0.75 0.75s-0.75-0.34-0.75-0.75v-0.21c0-1.16 0.85-1.73 1.17-1.95 0.37-0.25 0.49-0.42 0.49-0.68 0-0.5-0.41-0.91-0.91-0.91s-0.91 0.41-0.91 0.91c0 0.41-0.34 0.75-0.75 0.75s-0.75-0.34-0.75-0.75c0-1.33 1.08-2.41 2.41-2.41s2.41 1.08 2.41 2.41c0 1.14-0.84 1.71-1.15 1.92z"/>
</svg>
